raw-svg/align-justify.svg

<svg viewBox="0 0 24 24" xmlns="http://www.w3.org/2000/svg"><path d="m20 10.75h-16a.75.75 0 0 1 0-1.5h16a.75.75 0 0 1 0 1.5z"/><path d="m20 6.75h-16a.75.75 0 0 1 0-1.5h16a.75.75 0 0 1 0 1.5z"/><path d="m20 14.75h-16a.75.75 0 0 1 0-1.5h16a.75.75 0 0 1 0 1.5z"/><path d="m20 18.75h-16a.75.75 0 0 1 0-1.5h16a.75.75 0 0 1 0 1.5z"/></svg>

<svg xmlns="http://www.w3.org/2000/svg" viewBox="0 0 24 24"><g id="align-justify"><path d="M20,10.75H4a.75.75,0,0,1,0-1.5H20a.75.75,0,0,1,0,1.5Z"/><path d="M20,6.75H4a.75.75,0,0,1,0-1.5H20a.75.75,0,0,1,0,1.5Z"/><path d="M20,14.75H4a.75.75,0,0,1,0-1.5H20a.75.75,0,0,1,0,1.5Z"/><path d="M20,18.75H4a.75.75,0,0,1,0-1.5H20a.75.75,0,0,1,0,1.5Z"/></g></svg>
